X:3
T:3 O quam tristis et afflicta
T:à due
M:C
L:1/8
%%staves s | a | {1 2 3}
Q:"Larghetto"
K:Gm
V:s name=Sopran dyn=up
d2d2^c2d2|z4=c2c2|c2B2z4|g2B2B2HA2|
w:O quam tris-tis et af-fli-cta, et af-fli-cta
V:a name=Alt dyn=up
B2B2B2A2|z4^F2A2|A2G2z4|B2G2G2H^F2|
w:O quam tris-tis et af-fli-cta, et af-fli-cta
V:1 name="Str.\nBc."
[GBd]2[GBd]2[GB^c=e]2[^FAd]2|(a^f_e=c Ac^Fc)|(cAB^F) (GBd^f)|(gbg[GB])[GB]2H[^FA]2|
V:2
x8|!dolcea!x8|x8|x8|
V:3
G,2G,2G,2^F,2|z4D,2D,2|G,2G,,2z4|^C,2C,2HD,4|
% (13)
V:s		% M5
ff3ee3|(db2)d d cz2|!dolce!e4d4|z(ed) c(B2A3/) B/|B2z2!dolce!e4|
w:fu-it il-la be -ne-di-cta ma-ter u -ni-ge -ni-ti, ma
V:a
dd3cc3|B2B2B Az2|!dolce!c4B4|z(GF) E (D/C/B,)C2|B,2z2!dolce!c4|
w:fu-it il-la be -ne-di-cta ma-ter u -ni-ge -ni-ti, ma
V:1
w[d=f][df]3w[ce][ce]3|wdb2d [Bd][CF][FA][Ac]|[ce]4[Bd]4|z[Ge][Fd][Ec]([DB]2[CA]2)|z[B,D][DF][FB][ce]4|
V:2
x8|wBB3x4|!dolce!x8|x8|x4!dolce!x4|
V:3
zB,,D,B,, zC,A,,F,,|zB,,D,=E,F,2z2|zCA,F, zB,D,B,,|_E,4zB,E,F,|B,,2z2zCA,F,|
V:s		% M10
d4z(!forte!gf) e|(d//c//B3/)Tc2B2z2|z8|z8|
w:ter u -ni-ge --ni-ti!
V:a
B4z(!forte!ed) c|(B2A3/) B/B2z2|z8|z8|
w:ter u -ni-ge -ni-ti!
V:1
[Bd]4z[eg][fd][ce]|d2Tc2Bb2b-|ba/g/ f=e f3/g/ (f//_e3//)(d//c3//)|TB3/A//B// Tc3/B/ B,FB2|
V:2
x4!forte!x4|B2A2x4|x8|x8|
V:3
zB,,D,B,,E,4|zB,E,F,B,,2D,2|C,3B,, A,,B,,G,,E,|D,G,E,F,B,,2z2|
V:s		% M14
f2f2!forte!^f2g2|z4g2B2|B2A2!dolce!d2d2|d2c2a2c2|c2B2g2B2|
w:O quinam tris-tis et af-fli-cta fu-il il-la be-ne-di-cta, be-ne-
V:a
d2d2!forte!c2B2|z4B2G2|G2^F2!dolce!D2D2|E2=E2^F2F2|G2G2B2G2|
w:O quinam tris-tis et af-fli-cta fu-il il-la be-ne-di-cta, be-ne-
V:1
[Bdf]2[Bdf]2[Ac^f]2[GBg]2|GBd^f g[gb][Bg][GB]|[GB]2[^FA]2[dd'-]4|d'2c'4c'2-|c'2b2-ibx3|
V:2
x4!forte!x4|!dolce!x8|x4!dolce!x4|e2=e2^f4|g4-[gb][gb][Bg][GB]|
V:3
B,2B,2A,2G,2|z4^C,2C,2|D,8-|D,8-|D,4^C,4|
% (14)
V:s		% M19
B Az2!forte!c4|B4z(!dolce!ed) c|(B2A3/) G/G2z2|!forte!c4B4|
w:di-cta ma-ter u -ni-ge -ni-ti, ma-ter
V:a
G ^Fz2!forte!A4|G4z(!dolce!cB) A|(G2^F3/) G/G2z2|!forte!A4G4|
w:di-cta ma-ter u -ni-ge -ni-ti, ma-ter
V:1
[GB][^FA]z2[Ac]4|[GB]4z[ce][Bd][Ac]|[GB]2[^FA]2G[G,B,][B,D][DG]|[Ac]4[GB]4|
V:2
x8|x4!dolce!x4|x8|!forte!x8|
V:3
D,2z2zA,^F,D,|zG,B,G,E,4|zE,C,D,G,,2z2|zA,^F,D, zG,B,G,|
V:s		% M23
z(!dolce!ed) c(B2A3/) A/|G2z2z4|z8|Hz8|]
w:u -ni-ge -ni-ti!
V:a
z(!dolce!cB) A(G2^F3/) F/|G2z2z4|z8|Hz8|]
w:u -ni-ge -ni-ti!
V:1
z[ce][Bd][Ac][GB]2[^FA]2|Gg2g- g^f/_e/ d^c|de d//=c3//B//A3// G3/A/TA2|GDG,2Hz4|]
V:2
!dolce!x8|x8|x8|x8|]
V:3
E,4D,4|G,,2B,2(A,3G,)|^F,G, E,C, B,,E, C,D,|G,,2z2Hz4|]

